X: 4070
T: Bliain úr
R: reel
M: 4/4
K: Dmajor
DE|F2FG FED2|B,4 A,2DE|F2FE FED2|B4 A2DE|
F3G FED2|B,4 A,2DE|F2AF EDB,2|B,4 z2DE|
F3GF ED2|B,4 A,2DE|F2FE FED2|B4 A2DE|
F3G FED2|B,4 A,2DE|F2AF EDB,2|D4 z2FG|
A2AB A2Bc|dcAF A2z2|gagf edeg|fedB dede|
f3g fed2|B4 A2ef|g2ed cdec|d4|

